X:1
T:Lesson 4 - Camptown Races
M:C
K:A
L:1/4
ve e c e|f e c2|c B3|c B3|e e c e|f e c2|B2 c B|A4|
vA A c e|g4|f f a f|e4|e e c e|f e c2|B2 c B|A4|]
